X:1
T:Title
%%score { ( 1 3 ) | ( 2 4 ) }
L:1/8
Q:1/4=100
M:4/4
K:Bb
V:1 treble nm="Grand Piano"
V:3 treble 
V:2 bass 
V:4 bass 
V:1
 [DB]2 [DB]>[DB] [DB]2 [Dd]>[Dc] | [DB]2 [EA]>[A,EG] [B,DF]>D D>E | F2 [DB]2 [Dc]2 [DB]2 | %3
w: Adam~Geibel * * * * *|||
 B4 A2 z2 | c2 c>c c2 A>B | c2 c>d c>A A>B | c2 B2 A2 [=EG]2 | F6 z2 | z2 E>E E2 d>c | %9
w: ||||||
 B2- [DB-]>[DB-] [DB]2 z2 | [^FA]2 A>A A2 B,>A, | B2 B>B B2 z2 | B2 B>B B2 B>B | %13
w: ||||
 [FB]2 [Fc]>[FB] [EB]>[GB] [GB]>[Gc] | d2 F2 d2 c2 | [DB]6 z2 |] %16
w: |||
V:2
 [B,,F,]2 [B,,F,]>[B,,F,] [B,,F,]2 [B,,F,]>[B,,F,] | [B,,F,]2 [B,,G,]>B,, B,,>D, D,>E, | %2
 F,2 [B,,F,]2 [B,,F,]2 [B,,F,]2 | [C,F,]6 z2 | [F,A,F]2 [F,A,F]>[F,A,F] [F,A,F]2 [F,F]>[F,G,F] | %5
 [F,A,F]2 [F,A,F]>[F,B,F] [F,A,F]>[F,CF] [F,CF]>[G,CF] | [A,CF]2 [B,DG]2 [CF]2[K:bass] [C,B,]2 | %7
 [F,A,]6 z2 | [F,A,E]2 [F,A,]>[F,A,] [F,A,]2 z2 | [B,,F,]2 [B,,F,]>[B,,F,] [B,,F,]2 z2 | %10
 D,2- [D,-D^F]>[D,-DF] [D,DF]2 z2 | [DG]2 [DG]>[DG] [DG]2 z2 | %12
 [F,_A,D]2 [F,A,D]>[F,A,D] [E,G,E]2 [E,G,E]>[E,G,E] | %13
 [D,_A,]2 [D,A,]>[D,A,] [E,G,]>[E,B,] [E,B,]>[E,B,] | [F,B,F]2 [F,B,D]2 [F,A,F]2 [F,A,E]2 | %15
 [B,,F,B,]6 z2 |] %16
V:3
 x8 | x8 | x8 | E6 z2 | x8 | x8 | x8 | x8 | F6 z2 | D2 z2 z4 | x8 | x8 | x8 | x8 | x8 | x8 |] %16
V:4
 x8 | x8 | x8 | x8 | x8 | x8 | x6[K:bass] x2 | x8 | x8 | x8 | D2 z2 z4 | G,6 z2 | x8 | x8 | x8 | %15
 x8 |] %16

